X:577
T:Polska efter Olof Nordblad
T:(SvL Hälsingland 577)
R:Polska
B:Svenska Låtar Hälsingland
O:Norrala, Hälsingland
S:Olof Nordblad
M:3/4
L:1/8
K:Gm
G/A/B/c/ d2g2|fe/d/ ed/c/ d2|dB/d/ cA/c/ BG/B/|A>G (^F/G/)A/F/ D2|
G/A/B/c/ d2g2|fe/d/ ed/c/ d2|dB/d/ cA/c/ BA/G/|(^F/G/)A/F/ G4:|
|:B/c/d/e/ dc cB|A/B/c/d/ cB BA|Bc/d/ AB/c/ GA/B/|AG/^F/ GD B,G,|
B/c/d/e/ dc cB|A/B/c/d/ cB BA|Bc/d/ AB/c/ G(A/B/)|AG/^F/ G4:|

